X: 42125
T: Washington Square Park
R: three-two
M: 3/2
K: Emajor
FGE B, (3B,CE|FEE B, (3B,CE|AGB GFE|FF/G/E cB/G/F/E/|
FGE B, (3B,CE|FEE B, (3B,CE|cBB GFE|E3:|
gef eb/c/e/f/|bef eb/c/e/f/|=gee =ddB|A=dB ab/c/e/f/|
gef eb/c/e/f/|bef eb/c/e/f/|=gee =ddB|A4 b/c/e/f/|
gef eb/c/e/f/|bef eb/=c/e/f/|=gee =ddB|A=dB ab/c/e/f/|
gef eb/c/e/f/|bef eb/=c/e/f/|=gee =ddB|B3 cB/G/F/E/||
B/c/e/f/g efe|B/c/e/f/b efe|B/=c/e/f/=g ee=d|=dAB AAF|
B/c/e/f/g efe|B/c/e/f/b efe|B/=c/e/f/=g ee=d|=dA A2 B/c/e/f/|
gef eB/c/e/f/|bef eB/=c/e/f/|=gee =ddB|A=dB AB/c/e/f/|
gef eB/c/e/f/|bef eB/=c/e/f/|=gee =ddB|B3 cB/G/F/E/||
bef eB/=c/e/f/|bef eB/c/e/f/|=gee =ddB|A=dB AB/c/e/f/|
bef eB/=c/e/f/|bef eB/c/e/f/|=gee =ddB|A4 B/c/e/f/|
gef eB/c/e/f/|bef eB/c/e/f/|aee ddB|B4 B/c/e/f/|
gef eb/c/e/f/|bef eB/c/e/f/|gee ccB|B6||

